src/icons/icons_set_04/015-horloge.svg

<?xml version="1.0" encoding="UTF-8"?>
<svg width="50px" height="50px" viewBox="0 0 50 50" version="1.1" xmlns="http://www.w3.org/2000/svg" xmlns:xlink="http://www.w3.org/1999/xlink">
    <!-- Generator: Sketch 52.4 (67378) - http://www.bohemiancoding.com/sketch -->
    <title>015-horloge</title>
    <desc>Created with Sketch.</desc>
    <g id="015-horloge" stroke="none" stroke-width="1" fill="none" fill-rule="evenodd">
        <g id="Group" transform="translate(4.000000, 4.000000)" fill="#000000" fill-rule="nonzero">
            <g id="013-horloge">
                <g id="ICONSET-01">
                    <g id="013-horloge">
                        <path d="M41.8615647,21.005 C41.8615647,32.5237625 32.5237625,41.8615647 21.005,41.8615647 C9.48623741,41.8615647 0.148435333,32.5237625 0.148435333,21.005 C0.148435333,9.48623741 9.48623741,0.148435333 21.005,0.148435333 C26.5365049,0.148435333 31.8414537,2.34581709 35.7528183,6.25718169 C39.6641829,10.1685463 41.8615647,15.4734951 41.8615647,21.005 Z" id="Combined-Shape"></path>
                    </g>
                </g>
            </g>
        </g>
        <path d="M26.59529,24.7183925 L35.6127033,34.380316 L33.2668555,36.7926296 L22.1049481,26.8676772 L22.0809598,26.6823763 L21.8842837,25.0988351 L22.6684792,10.3756367 L25.831982,10.3756367 L26.59529,24.7183925 Z" id="Combined-Shape" fill="#FFFFFF" fill-rule="nonzero"></path>
    </g>
</svg>

<svg height="50" viewBox="0 0 50 50" width="50" xmlns="http://www.w3.org/2000/svg"><g fill="none"><path d="m41.8615647 21.005c0 11.5187625-9.3378022 20.8565647-20.8565647 20.8565647-11.51876259 0-20.85656467-9.3378022-20.85656467-20.8565647 0-11.51876259 9.33780208-20.85656467 20.85656467-20.85656467 5.5315049 0 10.8364537 2.19738176 14.7478183 6.10874636 3.9113646 3.91136461 6.1087464 9.21631341 6.1087464 14.74781831z" fill="#000" transform="translate(4 4)"/><path d="m26.59529 24.7183925 9.0174133 9.6619235-2.3458478 2.4123136-11.1619074-9.9249524-.0239883-.1853009-.1966761-1.5835412.7841955-14.7231984h3.1635028z" fill="#fff"/></g></svg>
